X:137
T: Kuma caier ku yinyin
N: C0228
O: China,Sichuan, Shimian
S: II, 241]
N: Inhalt: Ein Maedchen heiratet ein noch viel juengeres Kind.
R: Xiaodiao. Jianu suku]
M: 3/4
L: 1/16
K: F
D2D2D2F2G4 | e4d8 | d2c2A2c2A4 |
G2A2c4c4d2c2 | A4G8G2F2 | D2F2D8 |
D2F2G8A4 | e4d6c2 | A2c2A8 |
G2A2c4c4d2c2 | A4G8G2F2 | D2F2D8

@@@ Tune index: 6138
